assets/arrow-to-right-fill.svg

<svg xmlns="http://www.w3.org/2000/svg" fill="none" viewBox="0 0 28 28">
  <path fill="#2A2238" fill-rule="evenodd" d="M28 14c0 7.732-6.268 14-14 14-7.73199 0-14-6.268-14-14C0 6.26801 6.26801 0 14 0c7.732 0 14 6.26801 14 14Zm-8.05.6062L8.55 21.188c-.46667.2694-1.05-.0673-1.05-.6062V7.41821c0-.53886.58333-.87565 1.05-.60622l11.4 6.58181c.1451.0838.2451.2067.3.3443V8c0-.41421.3358-.75.75-.75s.75.33579.75.75v13c0 .4142-.3358.75-.75.75s-.75-.3358-.75-.75v-6.7381c-.0549.1376-.1549.2605-.3.3443Z" clip-rule="evenodd"/>
</svg>

<svg width="28" height="28" viewBox="0 0 28 28" fill="none" xmlns="http://www.w3.org/2000/svg">
<path fill-rule="evenodd" clip-rule="evenodd" d="M28 14C28 21.732 21.732 28 14 28C6.26801 28 0 21.732 0 14C0 6.26801 6.26801 0 14 0C21.732 0 28 6.26801 28 14ZM19.95 14.6062L8.55 21.188C8.08333 21.4574 7.5 21.1207 7.5 20.5818V7.41821C7.5 6.87935 8.08333 6.54256 8.55 6.81199L19.95 13.3938C20.0951 13.4776 20.1951 13.6005 20.25 13.7381V8C20.25 7.58579 20.5858 7.25 21 7.25C21.4142 7.25 21.75 7.58579 21.75 8V21C21.75 21.4142 21.4142 21.75 21 21.75C20.5858 21.75 20.25 21.4142 20.25 21V14.2619C20.1951 14.3995 20.0951 14.5224 19.95 14.6062Z" fill="#2A2238"/>
</svg>
